packages/assets/static/images/icons/bold/data--bold.svg

<svg width="24" height="24" viewBox="0 0 24 24" xmlns="http://www.w3.org/2000/svg">
<path d="M18.875 3.33C17.1519 2.39156 14.8888 1.875 12.5 1.875C10.1112 1.875 7.84812 2.39156 6.125 3.33C4.19094 4.38656 3.125 5.86687 3.125 7.5V16.5C3.125 18.1331 4.19094 19.6134 6.125 20.67C7.84531 21.6075 10.1084 22.125 12.5 22.125C14.8916 22.125 17.1519 21.6084 18.875 20.67C20.8119 19.6134 21.875 18.1331 21.875 16.5V7.5C21.875 5.86687 20.8091 4.38656 18.875 3.33ZM19.625 12C19.625 13.5938 16.6991 15.375 12.5 15.375C8.30094 15.375 5.375 13.5938 5.375 12V11.2069C5.61666 11.3744 5.86701 11.529 6.125 11.67C7.84531 12.6075 10.1084 13.125 12.5 13.125C14.8916 13.125 17.1519 12.6084 18.875 11.67C19.133 11.529 19.3833 11.3744 19.625 11.2069V12ZM12.5 4.125C16.6991 4.125 19.625 5.90625 19.625 7.5C19.625 9.09375 16.6991 10.875 12.5 10.875C8.30094 10.875 5.375 9.09375 5.375 7.5C5.375 5.90625 8.30094 4.125 12.5 4.125ZM12.5 19.875C8.30094 19.875 5.375 18.0938 5.375 16.5V15.7069C5.61666 15.8744 5.86701 16.029 6.125 16.17C7.84531 17.1075 10.1084 17.625 12.5 17.625C14.8916 17.625 17.1519 17.1084 18.875 16.17C19.133 16.029 19.3833 15.8744 19.625 15.7069V16.5C19.625 18.0938 16.6991 19.875 12.5 19.875Z"/>
</svg>

<svg viewBox="0 0 24 24" xmlns="http://www.w3.org/2000/svg" aria-hidden="true" fill="currentColor"><path d="M18.875 3.33c-1.723-.938-3.986-1.455-6.375-1.455s-4.652.517-6.375 1.455c-1.934 1.057-3 2.537-3 4.17v9c0 1.633 1.066 3.113 3 4.17 1.72.938 3.983 1.455 6.375 1.455s4.652-.517 6.375-1.455c1.937-1.057 3-2.537 3-4.17v-9c0-1.633-1.066-3.113-3-4.17m.75 8.67c0 1.594-2.926 3.375-7.125 3.375-4.2 0-7.125-1.781-7.125-3.375v-.793q.363.251.75.463c1.72.938 3.983 1.455 6.375 1.455s4.652-.517 6.375-1.455a8 8 0 0 0 .75-.463zM12.5 4.125c4.2 0 7.125 1.781 7.125 3.375s-2.926 3.375-7.125 3.375c-4.2 0-7.125-1.781-7.125-3.375S8.301 4.125 12.5 4.125m0 15.75c-4.2 0-7.125-1.781-7.125-3.375v-.793q.363.251.75.463c1.72.938 3.983 1.455 6.375 1.455s4.652-.517 6.375-1.455a8 8 0 0 0 .75-.463v.793c0 1.594-2.926 3.375-7.125 3.375"/></svg>
